SVG_Azure_Grouped/Deployment/Node JS.svg

<?xml version="1.0" encoding="UTF-8" standalone="no"?>
<!-- Generated by Microsoft Visio, SVG Export Node JS.svg Page-1 -->

<svg
   xmlns:dc="http://purl.org/dc/elements/1.1/"
   xmlns:cc="http://creativecommons.org/ns#"
   xmlns:rdf="http://www.w3.org/1999/02/22-rdf-syntax-ns#"
   xmlns:svg="http://www.w3.org/2000/svg"
   xmlns="http://www.w3.org/2000/svg"
   xmlns:sodipodi="http://sodipodi.sourceforge.net/DTD/sodipodi-0.dtd"
   xmlns:inkscape="http://www.inkscape.org/namespaces/inkscape"
   width="0.78745985in"
   height="0.47242692in"
   viewBox="0 0 56.697202 34.014783"
   xml:space="preserve"
   class="st6"
   version="1.1"
   id="svg59"
   sodipodi:docname="Node JS.svg"
   style="font-size:12px;overflow:visible;color-interpolation-filters:sRGB;fill:none;fill-rule:evenodd;stroke-linecap:square;stroke-miterlimit:3"
   inkscape:version="0.92.5 (2060ec1f9f, 2020-04-08)"><metadata
   id="metadata63"><rdf:RDF><cc:Work
       rdf:about=""><dc:format>image/svg+xml</dc:format><dc:type
         rdf:resource="http://purl.org/dc/dcmitype/StillImage" /></cc:Work></rdf:RDF></metadata><sodipodi:namedview
   pagecolor="#ffffff"
   bordercolor="#666666"
   borderopacity="1"
   objecttolerance="10"
   gridtolerance="10"
   guidetolerance="10"
   inkscape:pageopacity="0"
   inkscape:pageshadow="2"
   inkscape:window-width="640"
   inkscape:window-height="480"
   id="namedview61"
   showgrid="false"
   inkscape:zoom="2.298367"
   inkscape:cx="37.795281"
   inkscape:cy="5.9848482"
   inkscape:window-x="0"
   inkscape:window-y="0"
   inkscape:window-maximized="0"
   inkscape:current-layer="svg59" />
	<style
   type="text/css"
   id="style2">
	<![CDATA[
		.st1 {fill:#000000;stroke:none;stroke-linecap:butt;stroke-width:8.97979}
		.st2 {fill:#333333;stroke:none;stroke-linecap:butt;stroke-width:8.97979}
		.st3 {fill:#699f63;stroke:none;stroke-linecap:butt;stroke-width:8.97979}
		.st4 {fill:url(#grad0-14);stroke:none;stroke-linecap:butt;stroke-width:8.97979}
		.st5 {fill:#000000;stroke:none;stroke-linecap:butt;stroke-width:0.75}
		.st6 {fill:none;fill-rule:evenodd;font-size:12px;overflow:visible;stroke-linecap:square;stroke-miterlimit:3}
	]]>
	</style>

	<defs
   id="Patterns_And_Gradients">
		<linearGradient
   id="grad0-14"
   x1="0"
   y1="60.324312"
   x2="12.904554"
   y2="60.324312"
   gradientTransform="scale(0.95082712,1.0517159)"
   gradientUnits="userSpaceOnUse">
			<stop
   offset="0"
   stop-color="#41873f"
   stop-opacity="1"
   id="stop4" />
			<stop
   offset="0.33"
   stop-color="#418b3d"
   stop-opacity="1"
   id="stop6" />
			<stop
   offset="0.64"
   stop-color="#409637"
   stop-opacity="1"
   id="stop8" />
			<stop
   offset="0.93"
   stop-color="#3fa92d"
   stop-opacity="1"
   id="stop10" />
			<stop
   offset="1"
   stop-color="#3fae2a"
   stop-opacity="1"
   id="stop12" />
		</linearGradient>
	</defs>
	<g
   id="g57"
   transform="translate(-8.9797916,-8.9795109)">
		<title
   id="title16">Page-1</title>
		<g
   id="group17159-1"
   transform="translate(8.97988,-34.0157)">
			<title
   id="title18">Node JS.17159</title>
			<g
   id="group17160-2">
				<title
   id="title20">layer1</title>
				<g
   id="shape17161-3"
   transform="translate(21.646)">
					<title
   id="title22">path41</title>
					<path
   d="M 6.31,77.01 A 1.09322,1.05481 0 0 1 5.77,76.87 L 4.03,75.88 C 3.76,75.74 3.89,75.68 3.98,75.66 a 3.48009,3.35782 -180 0 0 0.79,-0.35 0.136653,0.131851 0 0 1 0.127398,0 L 6.26,76.09 a 0.173093,0.167012 -180 0 0 0.163895,0 L 11.64,73.18 a 0.163983,0.158222 -180 0 0 0.08195,-0.140531 L 11.72,67.22 A 0.173093,0.167012 -180 0 0 11.63805,67.07947 L 6.4,64.13 a 0.163983,0.158222 -180 0 0 -0.136699,0 L 1.04,67.04 A 0.163983,0.158222 -180 0 0 0.9580524,67.18053 L 0.96,73 a 0.163983,0.158222 -180 0 0 0.0819476,0.13189 L 2.47,73.93 c 0.77,0.38 1.25,-0.07 1.25,-0.51 v -5.7 A 0.154873,0.149432 0 0 1 3.874944,67.5705 L 4.54,67.57 a 0.154873,0.149432 0 0 1 0.154944,0.1495 L 4.69,73.46 A 1.44852,1.39762 0 0 1 3.14,75.03 2.232,2.15357 0 0 1 1.91,74.68 L 0.55,73.92 A 1.10233,1.0636 0 0 1 0,73.04 v -5.82 a 1.10233,1.0636 0 0 1 0.55,-0.88 l 5.22,-2.91 a 1.14788,1.10755 0 0 1 1.1,0 l 5.22,2.91 a 1.10233,1.0636 0 0 1 0.55,0.88 v 5.82 a 1.10233,1.0636 0 0 1 -0.55,0.88 l -5.22,2.91 a 1.09322,1.05481 0 0 1 -0.56,0.18 z"
   class="st1"
   id="path24"
   inkscape:connector-curvature="0"
   style="fill:#000000;stroke:none;stroke-width:8.97978973;stroke-linecap:butt" />
				</g>
				<g
   id="shape17162-5"
   transform="translate(26.684,-3.79755)">
					<title
   id="title27">path43</title>
					<path
   d="M 2.73,77.01 C 0.45,77.01 0,76 0,75.15 A 0.145763,0.140641 0 0 1 0.154944,75.000498 L 0.83,75 a 0.154873,0.149432 0 0 1 0.145648,0.122922 C 1.07,75.78 1.38,76.12 2.8,76.12 c 1.1,0 1.56,-0.23 1.56,-0.8 C 4.36,75 4.23,74.76 2.54,74.59 1.11,74.45 0.23,74.15 0.23,73.05 c 0,-1.11 0.91,-1.63 2.38,-1.63 1.67,0 2.5,0.56 2.6,1.76 A 0.154873,0.149432 0 0 1 5.055057,73.338134 L 4.38,73.34 A 0.154873,0.149432 0 0 1 4.234352,73.225719 C 4.07,72.53 3.68,72.34 2.61,72.34 c -1.08,0 -1.34,0.41 -1.34,0.71 0,0.3 0.16,0.47 1.82,0.67 1.66,0.21 2.37,0.5 2.37,1.59 0,1.09 -1.08,1.7 -2.73,1.7 z m 7.53,-6.1 A 1.01123,0.9757 0 1 1 9.24876,69.934291 1.01123,0.9757 0 0 1 10.26,70.91 Z m -1.82,0 A 0.847247,0.817479 -180 1 0 9.278145,70.101334 0.847247,0.817479 -180 0 0 8.412694,70.91 Z M 8.9,70.37 h 0.39 c 0.14,0 0.39,0 0.39,0.29 A 0.255085,0.246123 0 0 1 9.470308,70.923786 C 9.63,70.92 9.64,71.03 9.66,71.17 a 1.11144,1.07239 -180 0 0 0.05,0.29 H 9.42 v -0.35 c 0,-0.01 0,-0.09 -0.12,-0.09 H 9.1 v 0.43 H 8.87 Z m 0.21,0.47 H 9.28 A 0.154873,0.149432 -180 0 0 9.453193,70.681861 C 9.46,70.53 9.35,70.53 9.29,70.53 H 9.11 Z"
   class="st1"
   id="path29"
   inkscape:connector-curvature="0"
   style="fill:#000000;stroke:none;stroke-width:8.97978973;stroke-linecap:butt" />
				</g>
				<g
   id="shape17163-7"
   transform="translate(0,-12.513)">
					<title
   id="title32">path45</title>
					<path
   d="M 12.42,67.18 A 0.665043,0.641677 -180 0 0 12.082908,66.617444 L 6.54,63.55 A 0.655933,0.632887 -180 0 0 6.239408,63.462293 L 6.19,63.46 A 0.665043,0.641677 -180 0 0 5.880112,63.54771 L 0.34,66.63 A 0.674154,0.650467 -180 0 0 0.002908,67.192587 L 0,75.47 a 0.327967,0.316443 -180 0 0 0.163898,0.281394 0.318856,0.307653 -180 0 0 0.327795,0 L 3.81,73.92 A 0.674154,0.650467 -180 0 0 4.147091,73.357413 L 4.14,69.49 A 0.665043,0.641677 0 0 1 4.477089,68.92741 L 5.88,68.15 A 0.665043,0.641677 0 0 1 6.217092,68.062293 0.655933,0.632887 0 0 1 6.554183,68.15 L 7.96,68.93 a 0.665043,0.641677 0 0 1 0.337089,0.56259 L 8.3,73.36 a 0.674154,0.650467 -180 0 0 0.337091,0.562587 L 11.91,75.77 a 0.327967,0.316443 -180 0 0 0.337092,0 0.337077,0.325233 -180 0 0 0.163895,-0.281394 z M 38.27,55.55 a 0.209534,0.202172 -180 0 0 -0.255142,0 C 37.92,55.61 37.93,55.72 37.93,55.83 v 8.25 c 0,0.08 -0.12,0.15 -0.2,0.19 a 0.309746,0.298863 0 0 1 -0.273391,0 L 36.06,63.46 a 0.683264,0.659257 -180 0 0 -0.674147,0 L 29.92,66.55 c -0.21,0.11 -0.22,0.32 -0.22,0.56 v 6.15 c 0,0.23 0,0.44 0.22,0.56 l 5.46,3.09 a 0.619493,0.597726 -180 0 0 0.637719,0 L 41.38,73.82 c 0.21,-0.11 0.14,-0.32 0.14,-0.56 V 57.93 c 0,-0.23 0,-0.45 -0.17,-0.56 z m -0.34,15.73 c 0,0.07 -0.12,0.12 -0.17,0.15 l -1.94,1.05 a 0.209534,0.202172 0 0 1 -0.191445,0 L 33.59,71.43 c -0.06,-0.06 -0.22,-0.06 -0.22,-0.15 v -2.11 c 0,-0.07 0.16,-0.12 0.21,-0.14 l 1.97,-1.07 a 0.227755,0.219752 0 0 1 0.200395,0 L 37.75,69.03 c 0.06,0 0.19,0.07 0.19,0.14 z m 18.43,-2.03 a 0.665043,0.641677 -180 0 0 0.337091,-0.562556 L 56.69,67.19 A 0.665043,0.641677 -180 0 0 56.352909,66.627413 L 50.89,63.54 a 0.665043,0.641677 -180 0 0 -0.674147,0 L 44.68,66.63 a 0.665043,0.641677 -180 0 0 -0.337088,0.562587 L 44.34,73.34 a 0.665043,0.641677 -180 0 0 0.337088,0.562556 L 50.14,76.93 a 0.665043,0.641677 -180 0 0 0.655934,0 L 54.12,75.17 a 0.337077,0.325233 -180 0 0 0,-0.562556 L 48.55,71.52 A 0.337077,0.325233 0 0 1 48.386102,71.238606 L 48.38,69.31 a 0.337077,0.325233 0 0 1 0.163898,-0.281394 L 50.28,68.06 a 0.337077,0.325233 0 0 1 0.337091,0 L 52.36,69.03 a 0.337077,0.325233 0 0 1 0.163898,0.281394 L 52.52,70.83 a 0.337077,0.325233 -180 0 0 0.501058,0.281394 z"
   class="st2"
   id="path34"
   inkscape:connector-curvature="0"
   style="fill:#333333;stroke:none;stroke-width:8.97978973;stroke-linecap:butt" />
				</g>
				<g
   id="shape17164-9"
   transform="translate(49.3046,-17.9768)">
					<title
   id="title37">path47</title>
					<path
   d="m 1.13,74.42 a 0.127543,0.123061 0 0 1 0.127398,0 L 2.32,75.01 a 0.127543,0.123061 0 0 1 0.063699,0.105649 L 2.39,76.3 A 0.127543,0.123061 0 0 1 2.326301,76.405646 L 1.26,76.99 a 0.127543,0.123061 0 0 1 -0.127398,0 L 0.06,76.41 A 0.127543,0.123061 0 0 1 -0.0036991,76.304354 L 0,75.08 a 0.127543,0.123061 0 0 1 0.0636991,-0.105313 z"
   class="st3"
   id="path39"
   inkscape:connector-curvature="0"
   style="fill:#699f63;stroke:none;stroke-width:8.97978973;stroke-linecap:butt" />
				</g>
				<g
   id="shape17165-11"
   transform="translate(14.4216,-12.5808)">
					<title
   id="title42">_Clipping_Path_2</title>
					<path
   d="m 6.47,63.53 a 0.665043,0.641677 -180 0 0 -0.665021,0 L 0.34,66.6 A 0.665043,0.641677 -180 0 0 0.002909,67.153784 L 0,73.3 a 0.665043,0.641677 -180 0 0 0.337091,0.553784 L 5.8,76.93 a 0.665043,0.641677 -180 0 0 0.665021,0 L 11.93,73.86 a 0.665043,0.641677 -180 0 0 0.337091,-0.553784 L 12.27,67.15 a 0.665043,0.641677 -180 0 0 -0.337091,-0.553784 z"
   class="st4"
   id="path44"
   inkscape:connector-curvature="0"
   style="fill:url(#grad0-14);stroke:none;stroke-width:8.97978973;stroke-linecap:butt" />
				</g>
				<g
   id="group17166-15"
   transform="translate(14.4217,-12.5808)">
					<title
   id="title47">clip-path</title>
					<g
   id="shape17167-16">
						<title
   id="title49">_Clipping_Path_</title>
						<path
   d="m 6.47,63.53 a 0.665043,0.641677 -180 0 0 -0.665043,0 L 0.34,66.6 A 0.665043,0.641677 -180 0 0 0.002923,67.153776 L 0,73.3 a 0.665043,0.641677 -180 0 0 0.337077,0.553776 L 5.8,76.93 a 0.665043,0.641677 -180 0 0 0.665043,0 L 11.93,73.86 a 0.665043,0.641677 -180 0 0 0.337077,-0.553776 L 12.27,67.15 a 0.665043,0.641677 -180 0 0 -0.337077,-0.553776 z"
   class="st5"
   id="path51"
   inkscape:connector-curvature="0"
   style="fill:#000000;stroke:none;stroke-width:0.75;stroke-linecap:butt" />
					</g>
				</g>
			</g>
		</g>
	</g>
</svg>

<?xml version="1.0" encoding="UTF-8" standalone="no"?>
<!DOCTYPE svg PUBLIC "-//W3C//DTD SVG 1.1//EN" "http://www.w3.org/Graphics/SVG/1.1/DTD/svg11.dtd">
<!-- Generated by Microsoft Visio, SVG Export Node JS.svg Page-1 -->
<svg xmlns="http://www.w3.org/2000/svg" xmlns:xlink="http://www.w3.org/1999/xlink" xmlns:ev="http://www.w3.org/2001/xml-events"
		width="1.03684in" height="1.0696in" viewBox="0 0 74.6526 77.0113" xml:space="preserve" color-interpolation-filters="sRGB"
		class="st6">
	<style type="text/css">
	<![CDATA[
		.st1 {fill:#000000;stroke:none;stroke-linecap:butt;stroke-width:8.97979}
		.st2 {fill:#333333;stroke:none;stroke-linecap:butt;stroke-width:8.97979}
		.st3 {fill:#699f63;stroke:none;stroke-linecap:butt;stroke-width:8.97979}
		.st4 {fill:url(#grad0-14);stroke:none;stroke-linecap:butt;stroke-width:8.97979}
		.st5 {fill:#000000;stroke:none;stroke-linecap:butt;stroke-width:0.75}
		.st6 {fill:none;fill-rule:evenodd;font-size:12px;overflow:visible;stroke-linecap:square;stroke-miterlimit:3}
	]]>
	</style>

	<defs id="Patterns_And_Gradients">
		<linearGradient id="grad0-14" x1="0" y1="0" x2="1" y2="0" gradientTransform="rotate(119.29862583422 0.5 0.5)">
			<stop offset="0" stop-color="#41873f" stop-opacity="1"/>
			<stop offset="0.33" stop-color="#418b3d" stop-opacity="1"/>
			<stop offset="0.64" stop-color="#409637" stop-opacity="1"/>
			<stop offset="0.93" stop-color="#3fa92d" stop-opacity="1"/>
			<stop offset="1" stop-color="#3fae2a" stop-opacity="1"/>
		</linearGradient>
	</defs>
	<g>
		<title>Page-1</title>
		<g id="group16766-1" transform="translate(8.97988,-34.0157)">
			<title>Node JS.16766</title>
			<g id="group16767-2">
				<title>layer1</title>
				<g id="shape16768-3" transform="translate(21.646,-1.7053E-13)">
					<title>path41</title>
					<path d="M6.31 77.01 A1.09322 1.05481 0 0 1 5.77 76.87 L4.03 75.88 C3.76 75.74 3.89 75.68 3.98 75.66 A3.48009
								 3.35782 -180 0 0 4.77 75.31 a0.136653 0.131851 0 0 1 0.127398 -1.42109E-14 L6.26 76.09 a0.173093
								 0.167012 -180 0 0 0.163895 0 L11.64 73.18 a0.163983 0.158222 -180 0 0 0.081949 -0.140531 L11.72
								 67.22 a0.173093 0.167012 -180 0 0 -0.081949 -0.14053 L6.4 64.13 a0.163983 0.158222 -180 0 0 -0.136699
								 1.42109E-14 L1.04 67.04 a0.163983 0.158222 -180 0 0 -0.0819476 0.14053 L0.96 73 a0.163983 0.158222
								 -180 0 0 0.0819476 0.13189 L2.47 73.93 C3.24 74.31 3.72 73.86 3.72 73.42 L3.72 67.72 a0.154873 0.149432
								 0 0 1 0.154944 -0.1495 L4.54 67.57 a0.154873 0.149432 0 0 1 0.154944 0.1495 L4.69 73.46 A1.44852
								 1.39762 0 0 1 3.14 75.03 A2.232 2.15357 0 0 1 1.91 74.68 L0.55 73.92 A1.10233 1.0636 0 0 1 -0 73.04
								 L0 67.22 A1.10233 1.0636 0 0 1 0.55 66.34 L5.77 63.43 A1.14788 1.10755 0 0 1 6.87 63.43 L12.09 66.34
								 A1.10233 1.0636 0 0 1 12.64 67.22 L12.64 73.04 A1.10233 1.0636 0 0 1 12.09 73.92 L6.87 76.83 A1.09322
								 1.05481 0 0 1 6.31 77.01 L6.31 77.01 Z" class="st1"/>
				</g>
				<g id="shape16769-5" transform="translate(26.684,-3.79755)">
					<title>path43</title>
					<path d="M2.73 77.01 C0.45 77.01 0 76 0 75.15 a0.145763 0.140641 0 0 1 0.154944 -0.149502 L0.83 75 a0.154873
								 0.149432 0 0 1 0.145648 0.122922 C1.07 75.78 1.38 76.12 2.8 76.12 C3.9 76.12 4.36 75.89 4.36 75.32
								 C4.36 75 4.23 74.76 2.54 74.59 C1.11 74.45 0.23 74.15 0.23 73.05 C0.23 71.94 1.14 71.42 2.61 71.42
								 C4.28 71.42 5.11 71.98 5.21 73.18 a0.154873 0.149432 0 0 1 -0.154943 0.158134 L4.38 73.34 a0.154873
								 0.149432 0 0 1 -0.145648 -0.114281 C4.07 72.53 3.68 72.34 2.61 72.34 C1.53 72.34 1.27 72.75 1.27
								 73.05 C1.27 73.35 1.43 73.52 3.09 73.72 C4.75 73.93 5.46 74.22 5.46 75.31 C5.46 76.4 4.38 77.01
								 2.73 77.01 L2.73 77.01 ZM10.26 70.91 a1.01123 0.9757 0 1 1 -1.01124 -0.975709 a1.01123 0.9757 0
								 0 1 1.01124 0.975709 ZM8.44 70.91 a0.847247 0.817479 -180 1 0 0.838145 -0.808666 a0.847247 0.817479
								 -180 0 0 -0.865451 0.808666 L8.44 70.91 ZM8.9 70.37 L9.29 70.37 C9.43 70.37 9.68 70.37 9.68 70.66
								 a0.255085 0.246123 0 0 1 -0.209692 0.263786 C9.63 70.92 9.64 71.03 9.66 71.17 A1.11144 1.07239 -180
								 0 0 9.71 71.46 L9.42 71.46 L9.42 71.11 C9.42 71.1 9.42 71.02 9.3 71.02 L9.1 71.02 L9.1 71.45 L8.87
								 71.45 L8.9 70.37 ZM9.11 70.84 L9.28 70.84 a0.154873 0.149432 -180 0 0 0.173193 -0.158139 C9.46 70.53
								 9.35 70.53 9.29 70.53 L9.11 70.53 L9.11 70.84 Z" class="st1"/>
				</g>
				<g id="shape16770-7" transform="translate(0,-12.513)">
					<title>path45</title>
					<path d="M12.42 67.18 a0.665043 0.641677 -180 0 0 -0.337092 -0.562556 L6.54 63.55 a0.655933 0.632887 -180 0 0
								 -0.300592 -0.0877073 L6.19 63.46 a0.665043 0.641677 -180 0 0 -0.309888 0.0877073 L0.34 66.63 a0.674154
								 0.650467 -180 0 0 -0.337092 0.562587 L0 75.47 a0.327967 0.316443 -180 0 0 0.163898 0.281394 a0.318856
								 0.307653 -180 0 0 0.327795 0 L3.81 73.92 a0.674154 0.650467 -180 0 0 0.337091 -0.562587 L4.14 69.49
								 a0.665043 0.641677 0 0 1 0.337089 -0.56259 L5.88 68.15 a0.665043 0.641677 0 0 1 0.337092 -0.0877073
								 a0.655933 0.632887 0 0 1 0.337091 0.0877073 L7.96 68.93 a0.665043 0.641677 0 0 1 0.337089 0.56259
								 L8.3 73.36 a0.674154 0.650467 -180 0 0 0.337091 0.562587 L11.91 75.77 a0.327967 0.316443 -180 0
								 0 0.337092 1.42109E-14 a0.337077 0.325233 -180 0 0 0.163895 -0.281394 L12.42 67.18 ZM38.27 55.55
								 a0.209534 0.202172 -180 0 0 -0.255142 -2.84217E-14 C37.92 55.61 37.93 55.72 37.93 55.83 L37.93 64.08
								 C37.93 64.16 37.81 64.23 37.73 64.27 a0.309746 0.298863 0 0 1 -0.273391 1.56319E-13 L36.06 63.46
								 a0.683264 0.659257 -180 0 0 -0.674147 -1.13687E-13 L29.92 66.55 C29.71 66.66 29.7 66.87 29.7 67.11
								 L29.7 73.26 C29.7 73.49 29.7 73.7 29.92 73.82 L35.38 76.91 a0.619493 0.597726 -180 0 0 0.637719
								 -2.13163E-13 L41.38 73.82 C41.59 73.71 41.52 73.5 41.52 73.26 L41.52 57.93 C41.52 57.7 41.52 57.48
								 41.35 57.37 L38.27 55.55 ZM37.93 71.28 C37.93 71.35 37.81 71.4 37.76 71.43 L35.82 72.48 a0.209534
								 0.202172 0 0 1 -0.191445 9.9476E-14 L33.59 71.43 C33.53 71.37 33.37 71.37 33.37 71.28 L33.37 69.17
								 C33.37 69.1 33.53 69.05 33.58 69.03 L35.55 67.96 a0.227755 0.219752 0 0 1 0.200395 -2.84217E-14
								 L37.75 69.03 C37.81 69.03 37.94 69.1 37.94 69.17 L37.93 71.28 ZM56.36 69.25 a0.665043 0.641677 -180
								 0 0 0.337091 -0.562556 L56.69 67.19 a0.665043 0.641677 -180 0 0 -0.337091 -0.562587 L50.89 63.54
								 a0.665043 0.641677 -180 0 0 -0.674147 1.06581E-13 L44.68 66.63 a0.665043 0.641677 -180 0 0 -0.337088
								 0.562587 L44.34 73.34 a0.665043 0.641677 -180 0 0 0.337088 0.562556 L50.14 76.93 a0.665043 0.641677
								 -180 0 0 0.655934 7.10543E-14 L54.12 75.17 a0.337077 0.325233 -180 0 0 3.05533E-13 -0.562556 L48.55
								 71.52 a0.337077 0.325233 0 0 1 -0.163898 -0.281394 L48.38 69.31 a0.337077 0.325233 0 0 1 0.163898
								 -0.281394 L50.28 68.06 a0.337077 0.325233 0 0 1 0.337091 2.84217E-14 L52.36 69.03 a0.337077 0.325233
								 0 0 1 0.163898 0.281394 L52.52 70.83 a0.337077 0.325233 -180 0 0 0.501058 0.281394 L56.36 69.25
								 Z" class="st2"/>
				</g>
				<g id="shape16771-9" transform="translate(49.3046,-17.9768)">
					<title>path47</title>
					<path d="M1.13 74.42 a0.127543 0.123061 0 0 1 0.127398 0 L2.32 75.01 a0.127543 0.123061 0 0 1 0.0636991 0.105649
								 L2.39 76.3 a0.127543 0.123061 0 0 1 -0.0636991 0.105646 L1.26 76.99 a0.127543 0.123061 0 0 1 -0.127398
								 0 L0.06 76.41 a0.127543 0.123061 0 0 1 -0.0636991 -0.105646 L0 75.08 a0.127543 0.123061 0 0 1 0.0636991
								 -0.105313 L1.13 74.42 Z" class="st3"/>
				</g>
				<g id="shape16772-11" transform="translate(14.4216,-12.5808)">
					<title>_Clipping_Path_2</title>
					<path d="M6.47 63.53 a0.665043 0.641677 -180 0 0 -0.665021 7.10543E-15 L0.34 66.6 a0.665043 0.641677 -180 0 0
								 -0.337091 0.553784 L0 73.3 a0.665043 0.641677 -180 0 0 0.337091 0.553784 L5.8 76.93 a0.665043 0.641677
								 -180 0 0 0.665021 0 L11.93 73.86 a0.665043 0.641677 -180 0 0 0.337091 -0.553784 L12.27 67.15 a0.665043
								 0.641677 -180 0 0 -0.337091 -0.553784 L6.47 63.53 Z" class="st4"/>
				</g>
				<g id="group16773-15" transform="translate(14.4217,-12.5808)">
					<title>clip-path</title>
					<g id="shape16774-16">
						<title>_Clipping_Path_</title>
						<path d="M6.47 63.53 a0.665043 0.641677 -180 0 0 -0.665043 -7.10543E-15 L0.34 66.6 a0.665043 0.641677 -180
									 0 0 -0.337077 0.553776 L0 73.3 a0.665043 0.641677 -180 0 0 0.337077 0.553776 L5.8 76.93 a0.665043
									 0.641677 -180 0 0 0.665043 0 L11.93 73.86 a0.665043 0.641677 -180 0 0 0.337077 -0.553776 L12.27
									 67.15 a0.665043 0.641677 -180 0 0 -0.337077 -0.553776 L6.47 63.53 Z" class="st5"/>
					</g>
				</g>
			</g>
		</g>
	</g>
</svg>
